lib/flags/m/PF.svg

<svg xmlns="http://www.w3.org/2000/svg" fill="none" viewBox="0 0 20 15"><mask id="PF_svg__a" width="20" height="15" x="0" y="0" mask-type="alpha" maskUnits="userSpaceOnUse"><path fill="#fff" d="M0 0H20V15H0z"/></mask><g mask="url(#PF_svg__a)"><path fill="#F7FCFF" fill-rule="evenodd" d="M0 0V15H20V0H0Z" clip-rule="evenodd"/><mask id="PF_svg__b" width="20" height="15" x="0" y="0" mask-type="alpha" maskUnits="userSpaceOnUse"><path fill="#fff" fill-rule="evenodd" d="M0 0V15H20V0H0Z" clip-rule="evenodd"/></mask><g mask="url(#PF_svg__b)"><path fill="#BF2714" fill-rule="evenodd" d="M0 0V3.75H20V0H0zM0 11.25V15H20V11.25H0z" clip-rule="evenodd"/><mask id="PF_svg__c" width="8" height="9" x="6" y="3" mask-type="alpha" maskUnits="userSpaceOnUse"><path fill="#fff" fill-rule="evenodd" d="M10 11.25C12.0711 11.25 13.75 9.57107 13.75 7.5C13.75 5.42893 12.0711 3.75 10 3.75C7.92893 3.75 6.25 5.42893 6.25 7.5C6.25 9.57107 7.92893 11.25 10 11.25Z" clip-rule="evenodd"/></mask><g mask="url(#PF_svg__c)"><path fill="#5277B9" fill-rule="evenodd" d="M6.59284 8.60287C6.55863 8.49571 6.67438 8.40267 6.77168 8.45913L7.00524 8.59467C7.04007 8.61488 7.0826 8.61676 7.11908 8.59968L7.69562 8.32973C7.73603 8.3108 7.78353 8.31526 7.81971 8.34138L8.44251 8.79088 9.30343 8.32736C9.3366 8.3095 9.37614 8.30784 9.4107 8.32285L10.0591 8.60452C10.0919 8.61876 10.1292 8.61803 10.1614 8.60253L10.7431 8.32253C10.7741 8.30758 10.81 8.30635 10.842 8.31913L11.5617 8.60659C11.5941 8.61954 11.6305 8.6181 11.6618 8.60261L12.2193 8.32683C12.2545 8.30939 12.296 8.30987 12.3308 8.32811L12.8421 8.59586C12.8791 8.61524 12.9234 8.61451 12.9598 8.59392L13.2257 8.44329C13.3205 8.3896 13.4331 8.47657 13.4051 8.58184L13.3495 8.79088H6.65286L6.59284 8.60287zM6.59049 9.34414C6.55728 9.23631 6.67469 9.14443 6.77137 9.20258L6.98385 9.33039C7.01948 9.35181 7.06351 9.35379 7.10091 9.33564L7.64918 9.06956C7.69055 9.04948 7.73968 9.05417 7.77651 9.08172L8.37398 9.52867 9.20127 9.067C9.23524 9.04804 9.27619 9.04628 9.31166 9.06226L9.93026 9.34079C9.96391 9.35594 10.0026 9.35517 10.0356 9.33869L10.5904 9.06188C10.6223 9.04599 10.6595 9.04468 10.6923 9.0583L11.38 9.34298C11.4133 9.35678 11.451 9.35525 11.4831 9.33879L12.0142 9.06647C12.0503 9.04794 12.0932 9.04845 12.1289 9.06781L12.6149 9.33161C12.6528 9.35217 12.6987 9.3514 12.7358 9.32958L12.9796 9.18642C13.0739 9.13107 13.1881 9.21708 13.161 9.32299L13.1082 9.52867H6.64733L6.59049 9.34414zM6.71348 9.83584C6.68027 9.72801 6.79767 9.63613 6.89436 9.69428L7.10684 9.82209C7.14246 9.84351 7.1865 9.84549 7.22389 9.82734L7.77216 9.56126C7.81354 9.54118 7.86266 9.54587 7.89949 9.57342L8.49696 10.0204 9.32425 9.5587C9.35823 9.53974 9.39917 9.53798 9.43465 9.55396L10.0532 9.83249C10.0869 9.84764 10.1256 9.84687 10.1586 9.83039L10.7134 9.55358C10.7453 9.53769 10.7824 9.53638 10.8153 9.55L11.5029 9.83468C11.5363 9.84848 11.574 9.84695 11.6061 9.83049L12.1371 9.55817C12.1733 9.53964 12.2162 9.54015 12.2519 9.55951L12.7379 9.82331C12.7758 9.84387 12.8217 9.84309 12.8588 9.82128L13.1026 9.67812C13.1969 9.62276 13.3111 9.70878 13.284 9.81468L13.2312 10.0204H6.77032L6.71348 9.83584zM7.45115 10.3275C7.41794 10.2197 7.53534 10.1278 7.63203 10.186L7.84451 10.3138C7.88013 10.3352 7.92417 10.3372 7.96156 10.319L8.50983 10.053C8.55121 10.0329 8.60034 10.0376 8.63716 10.0651L9.23463 10.5121 10.0619 10.0504C10.0959 10.0314 10.1368 10.0297 10.1723 10.0457L10.7909 10.3242C10.8246 10.3393 10.8633 10.3386 10.8963 10.3221L11.4511 10.0453C11.4829 10.0294 11.5201 10.0281 11.553 10.0417L12.2406 10.3264C12.2739 10.3402 12.3116 10.3386 12.3437 10.3222L12.8748 10.0499C12.9109 10.0313 12.9539 10.0318 12.9896 10.0512L13.4756 10.315C13.5135 10.3356 13.5593 10.3348 13.5965 10.313L13.8403 10.1698C13.9346 10.1145 14.0488 10.2005 14.0216 10.3064L13.9689 10.5121H7.50799L7.45115 10.3275zM6.46757 10.9425C6.43436 10.8347 6.55176 10.7428 6.64844 10.801L6.86093 10.9288C6.89655 10.9502 6.94059 10.9522 6.97798 10.934L7.52625 10.6679C7.56763 10.6479 7.61675 10.6526 7.65358 10.6801L8.25105 11.1271 9.07834 10.6654C9.11232 10.6464 9.15326 10.6447 9.18874 10.6606L9.80733 10.9392C9.84099 10.9543 9.87967 10.9536 9.9127 10.9371L10.4675 10.6603C10.4994 10.6444 10.5365 10.6431 10.5694 10.6567L11.257 10.9414C11.2904 10.9552 11.3281 10.9536 11.3602 10.9372L11.8912 10.6649C11.9274 10.6463 11.9703 10.6468 12.006 10.6662L12.492 10.93C12.5299 10.9506 12.5757 10.9498 12.6129 10.928L12.8567 10.7848C12.951 10.7295 13.0652 10.8155 13.0381 10.9214L12.9853 11.1271H6.52441L6.46757 10.9425z" clip-rule="evenodd"/><path fill="red" d="M7.91699 5.90356H8.54199L8.52751 8.37363C8.63244 8.7062 8.78214 8.83614 9.01406 8.83614V9.46114C8.48636 9.46114 8.11301 9.13708 7.91699 8.46766V5.90356zM12.1419 5.90356H11.5169L11.5314 8.37363C11.4265 8.7062 11.2768 8.83614 11.0448 8.83614V9.46114C11.5725 9.46114 11.9459 9.13708 12.1419 8.46766V5.90356z"/><path fill="red" fill-rule="evenodd" d="M10.4529 4.31789C10.4529 4.31789 9.41614 4.04678 9.41614 4.73424C9.41614 5.42171 9.41614 6.89809 9.41614 6.89809L10.6249 7.25705V5.48842C10.6249 5.48842 10.0205 5.11913 10.0205 4.83034C10.0205 4.54155 10.4529 4.31789 10.4529 4.31789Z" clip-rule="evenodd"/><path stroke="#000" stroke-width=".625" d="M8.70856 8.05669 9.10274 7.55298M9.068 8.04016 8.69031 7.53345M9.27411 8.05669 9.66829 7.55298M9.63355 8.04016 9.25586 7.53345M9.81512 8.05669 10.2093 7.55298M10.1746 8.04016 9.79688 7.53345M10.3807 8.05669 10.7749 7.55298M10.7401 8.04016 10.3624 7.53345M10.9462 8.05669 11.3404 7.55298M11.3057 8.04016 10.928 7.53345"/><path fill="#FA8F21" fill-rule="evenodd" d="M8.40897 4.43435L9.15701 5.89577L9.24911 4.43435L9.15701 4.14648L8.40897 4.43435ZM8.03422 5.68148L7.49529 5.11005L8.03422 4.46783L9.16701 6.27867V6.73895L8.62232 6.27867V5.68148H8.03422ZM6.84775 6.12173L7.83077 6.59233L7.90757 5.86527L7.08914 5.16595L6.84775 6.12173ZM7.88036 7.3286L6.5873 7.19633V6.28439L7.88036 6.78177V7.3286ZM6.55227 8.22438L6.3988 7.44895L7.85631 7.52163V8.22438H6.55227ZM8.60446 6.95027V6.51259L9.14955 6.95027L9.09039 7.18137L8.60446 6.95027ZM13.6753 7.44895L13.5219 8.22438H12.2178V7.52163L13.6753 7.44895ZM12.1938 7.3286L13.4868 7.19633V6.28439L12.1938 6.78177V7.3286ZM13.2264 6.12173L12.2434 6.59233L12.1666 5.86527L12.985 5.16595L13.2264 6.12173ZM12.0399 5.68148L12.5788 5.11005L12.0399 4.46783L10.9071 6.27867V6.73895L11.4518 6.27867V5.68148H12.0399ZM11.6652 4.43435L10.9171 5.89577L10.825 4.43435L10.9171 4.14648L11.6652 4.43435ZM11.4697 6.95027V6.51259L10.9246 6.95027L10.9837 7.18137L11.4697 6.95027Z" clip-rule="evenodd"/></g></g></g></svg>

<svg xmlns="http://www.w3.org/2000/svg" fill="none" viewBox="0 0 20 15"><mask id="PF_svg__a" width="20" height="15" x="0" y="0" maskUnits="userSpaceOnUse"><path fill="#fff" d="M0 0h20v15H0z"/></mask><g mask="url(#PF_svg__a)"><path fill="#F7FCFF" fill-rule="evenodd" d="M0 0v15h20V0H0z" clip-rule="evenodd"/><mask id="PF_svg__b" width="20" height="15" x="0" y="0" maskUnits="userSpaceOnUse"><path fill="#fff" fill-rule="evenodd" d="M0 0v15h20V0H0z" clip-rule="evenodd"/></mask><g mask="url(#PF_svg__b)"><path fill="#BF2714" fill-rule="evenodd" d="M0 0v3.75h20V0H0zm0 11.25V15h20v-3.75H0z" clip-rule="evenodd"/><mask id="PF_svg__c" width="8" height="9" x="6" y="3" maskUnits="userSpaceOnUse"><path fill="#fff" fill-rule="evenodd" d="M10 11.25a3.75 3.75 0 100-7.5 3.75 3.75 0 000 7.5z" clip-rule="evenodd"/></mask><g mask="url(#PF_svg__c)"><path fill="#5277B9" fill-rule="evenodd" d="M6.593 8.603a.123.123 0 01.179-.144l.233.136c.035.02.078.022.114.005l.577-.27a.123.123 0 01.124.011l.623.45.86-.464a.123.123 0 01.108-.004l.648.282c.033.014.07.013.103-.002l.581-.28a.123.123 0 01.1-.004l.719.288a.123.123 0 00.1-.004l.557-.276a.123.123 0 01.112.001l.511.268a.12.12 0 00.118-.002l.266-.15a.123.123 0 01.18.138l-.056.209H6.653l-.06-.188zm-.003.741a.123.123 0 01.181-.141l.213.127c.036.022.08.024.117.006l.548-.266a.123.123 0 01.128.012l.597.447.827-.462a.123.123 0 01.11-.005l.62.279a.123.123 0 00.105-.002l.555-.277a.123.123 0 01.101-.004l.688.285a.123.123 0 00.103-.004l.531-.273a.123.123 0 01.115.002l.486.264c.038.02.084.02.12-.002l.245-.144a.123.123 0 01.181.137l-.053.206h-6.46l-.057-.185zm.123.492a.123.123 0 01.181-.142l.213.128a.12.12 0 00.117.005l.548-.266a.123.123 0 01.128.013l.597.447.827-.462a.123.123 0 01.11-.005l.62.279a.123.123 0 00.105-.002l.554-.277a.123.123 0 01.102-.004l.688.285a.123.123 0 00.103-.004l.531-.273a.123.123 0 01.115.002l.486.263a.12.12 0 00.12-.002l.245-.143a.123.123 0 01.181.137l-.053.206h-6.46l-.058-.185zm.738.492a.123.123 0 01.181-.142l.213.128c.035.021.08.023.117.005l.548-.266a.123.123 0 01.127.012l.598.447.827-.461a.123.123 0 01.11-.005l.619.278a.123.123 0 00.105-.002l.555-.276a.123.123 0 01.102-.004l.688.285a.123.123 0 00.103-.005l.53-.272a.123.123 0 01.116.002l.486.263c.037.02.083.02.12-.002l.244-.143a.123.123 0 01.182.137l-.053.205H7.508l-.057-.184zm-.983.615a.123.123 0 01.18-.142l.213.128c.036.021.08.023.117.005l.548-.266a.123.123 0 01.128.012l.597.447.827-.462a.123.123 0 01.11-.004l.62.278a.123.123 0 00.105-.002l.554-.277a.123.123 0 01.102-.003l.688.284a.123.123 0 00.103-.004l.531-.272a.123.123 0 01.115.001l.486.264c.038.02.084.02.12-.002l.245-.143a.123.123 0 01.181.136l-.053.206h-6.46l-.057-.184z" clip-rule="evenodd"/><path fill="red" d="M7.917 5.904h.625l-.014 2.47c.104.332.254.462.486.462v.625c-.528 0-.901-.324-1.097-.993V5.904zm4.225 0h-.625l.014 2.47c-.104.332-.254.462-.486.462v.625c.528 0 .9-.324 1.097-.993V5.904z"/><path fill="red" fill-rule="evenodd" d="M10.453 4.318s-1.037-.271-1.037.416v2.164l1.209.359V5.488s-.604-.369-.604-.658c0-.288.432-.512.432-.512z" clip-rule="evenodd"/><path stroke="#000" stroke-width=".625" d="M8.709 8.057l.394-.504m-.035.487l-.378-.507m.584.524l.394-.504m-.034.487l-.378-.507m.559.524l.394-.504m-.034.487l-.378-.507m.583.524l.395-.504m-.035.487l-.378-.507m.584.524l.394-.504m-.034.487l-.378-.507"/><path fill="#FA8F21" fill-rule="evenodd" d="M8.409 4.434l.748 1.462.092-1.462-.092-.288-.748.288zm-.375 1.247l-.539-.571.54-.642 1.132 1.81v.46l-.545-.46v-.597h-.588zm-1.186.44l.983.471.077-.727-.819-.7-.241.957zM7.88 7.33l-1.293-.133v-.912l1.293.498v.547zm-1.328.895L6.4 7.45l1.457.073v.702H6.552zM8.604 6.95v-.438l.546.438-.06.231-.486-.23zm5.071.499l-.153.775h-1.304v-.702l1.457-.073zm-1.481-.12l1.293-.133v-.912l-1.293.498v.547zm1.032-1.207l-.983.47-.076-.727.818-.7.241.957zm-1.186-.44l.539-.572-.54-.642-1.132 1.81v.46l.545-.46v-.597h.588zm-.375-1.248l-.748 1.462-.092-1.462.092-.288.748.288zM11.47 6.95v-.438l-.545.438.059.231.486-.23z" clip-rule="evenodd"/></g></g></g></svg>
